X:1
T:Antwerp, LM
T:Antwerp, LM
T:William Smallwood, 1876
T:Public Domain Courtesy of the Cyber Hymnal™
C:William Smallwood, 1876
Z:Public Domain
Z:Courtesy of the Cyber Hymnal™
%%score ( 1 2 ) ( 3 4 )
L:1/8
M:3/4
K:D
V:1 treble 
V:2 treble 
V:3 bass 
V:4 bass 
V:1
 [DA]2 [DA]2 [EA]2 | [Dd]4 D2 | (E2 F2) [CG]2 | [DF]6 | E2 [DE]2 [CE]2 | ([DF]2 [E^G]2) [EA]2 | %6
 ([FB]2 [Ec]2) B2 | [CA]6 | [DA]2 [DB]2 [D=c]2 | [DB]4 [^DA]2 | [EG]4 [^DF]2 | [EG]6 | %12
 [EA]2 [FA]2 [EA]2 | (d2 G2) [DF]2 | (E2 F2) [CE]2 | D6 |] %16
V:2
 x6 | x4 D2 | D4 x2 | x6 | E2 x4 | x6 | x4 (ED) | x6 | x6 | x6 | x6 | x6 | x6 | D4 x2 | D4 x2 | %15
 D6 |] %16
V:3
 [D,F,]2 [D,F,]2 [C,A,]2 | [B,,F,]4 [F,A,]2 | ([G,B,]2 A,2) [A,,A,]2 | [D,A,]6 | %4
 [C,A,]2 [B,,^G,]2 [A,,A,]2 | (A,2 B,2) [B,,A,]2 | A,4 [E,^G,]2 | [A,,A,]6 | %8
 [D,F,]2 [D,G,]2 [D,A,]2 | G,4 [F,B,]2 | [E,B,]4 [B,,B,]2 | [E,B,]6 | [C,A,]2 [D,A,]2 [C,A,]2 | %13
 (F,2 G,2) [A,,A,]2 | ([G,,B,]2 [A,,A,]2) (A,G,) | [D,F,]6 |] %16
V:4
 x6 | x6 | x2 A,2 x2 | x6 | x6 | D,4 x2 | (D,2 E,2) x2 | x6 | x6 | G,4 x2 | x6 | x6 | x6 | %13
 B,,4 x2 | x4 A,,2 | x6 |] %16

